Numix-Light/16/status/indicator-keyboard-Pt-1.svg

<?xml version="1.0" encoding="UTF-8" standalone="no"?>
<svg
   xmlns:dc="http://purl.org/dc/elements/1.1/"
   xmlns:cc="http://creativecommons.org/ns#"
   xmlns:rdf="http://www.w3.org/1999/02/22-rdf-syntax-ns#"
   xmlns:svg="http://www.w3.org/2000/svg"
   xmlns="http://www.w3.org/2000/svg"
   xmlns:sodipodi="http://sodipodi.sourceforge.net/DTD/sodipodi-0.dtd"
   xmlns:inkscape="http://www.inkscape.org/namespaces/inkscape"
   viewBox="0 0 16 16"
   id="svg2"
   version="1.1"
   inkscape:version="0.91 r13725"
   sodipodi:docname="indicator-keyboard-Pt-1.svg">
  <metadata
     id="metadata14">
    <rdf:RDF>
      <cc:Work
         rdf:about="">
        <dc:format>image/svg+xml</dc:format>
        <dc:type
           rdf:resource="http://purl.org/dc/dcmitype/StillImage" />
      </cc:Work>
    </rdf:RDF>
  </metadata>
  <defs
     id="defs12" />
  <sodipodi:namedview
     pagecolor="#ffffff"
     bordercolor="#666666"
     borderopacity="1"
     objecttolerance="10"
     gridtolerance="10"
     guidetolerance="10"
     inkscape:pageopacity="0"
     inkscape:pageshadow="2"
     inkscape:window-width="640"
     inkscape:window-height="480"
     id="namedview10"
     showgrid="false"
     inkscape:zoom="14.75"
     inkscape:cx="8"
     inkscape:cy="8"
     inkscape:window-x="65"
     inkscape:window-y="24"
     inkscape:window-maximized="0"
     inkscape:current-layer="svg2" />
  <path
     style="fill:#353535;fill-opacity:1"
     d="M 1.5996094 0 C 0.71320937 2.9605947e-16 0 0.71320937 0 1.5996094 L 0 14.400391 C 2.9605947e-16 15.286791 0.71320937 16 1.5996094 16 L 14.400391 16 C 15.286791 16 16 15.286791 16 14.400391 L 16 1.5996094 C 16 0.71320937 15.286791 0 14.400391 0 L 1.5996094 0 z M 4.5449219 4.8046875 C 5.4269219 4.8046875 6.083625 4.9725938 6.515625 5.3085938 C 6.947625 5.6445937 7.1640625 6.1222344 7.1640625 6.7402344 C 7.1640625 7.0942344 7.1006094 7.3964375 6.9746094 7.6484375 C 6.8486094 7.8944375 6.6675937 8.0959531 6.4335938 8.2519531 C 6.1995938 8.4019531 5.9123125 8.5139375 5.5703125 8.5859375 C 5.2343125 8.6519375 4.8537344 8.6835937 4.4277344 8.6835938 L 3.5820312 8.6835938 L 3.5820312 11.095703 L 2.96875 11.095703 L 2.96875 4.9765625 C 3.18475 4.9165625 3.4366094 4.8736094 3.7246094 4.8496094 C 4.0186094 4.8196094 4.2929219 4.8046875 4.5449219 4.8046875 z M 8.8085938 4.9667969 L 8.8085938 6.4433594 L 10.662109 6.4433594 L 10.662109 6.9375 L 8.8085938 6.9375 L 8.8085938 9.4121094 C 8.8085938 9.6761094 8.8290938 9.8925467 8.8710938 10.060547 C 8.9190938 10.222547 8.9843594 10.349453 9.0683594 10.439453 C 9.1523594 10.529453 9.255 10.589141 9.375 10.619141 C 9.495 10.649141 9.6274844 10.664062 9.7714844 10.664062 C 10.017484 10.664062 10.215234 10.636031 10.365234 10.582031 C 10.515234 10.522031 10.632797 10.469875 10.716797 10.421875 L 10.859375 10.90625 C 10.775375 10.96025 10.629922 11.023703 10.419922 11.095703 C 10.209922 11.161703 9.9803747 11.195313 9.734375 11.195312 C 9.446375 11.195312 9.2038594 11.159891 9.0058594 11.087891 C 8.8138594 11.009891 8.6590625 10.894141 8.5390625 10.744141 C 8.4250625 10.588141 8.3429219 10.397922 8.2949219 10.169922 C 8.2469219 9.9419217 8.2226562 9.671375 8.2226562 9.359375 L 8.2226562 5.0742188 L 8.8085938 4.9667969 z M 4.5703125 5.3359375 C 4.3423125 5.3359375 4.1483281 5.3452812 3.9863281 5.3632812 C 3.8303281 5.3752813 3.6960313 5.3864375 3.5820312 5.3984375 L 3.5820312 8.1523438 L 4.3554688 8.1523438 C 4.6854687 8.1523438 4.9820938 8.1356094 5.2460938 8.0996094 C 5.5160937 8.0576094 5.7436875 7.9848125 5.9296875 7.8828125 C 6.1216875 7.7748125 6.2690938 7.6274062 6.3710938 7.4414062 C 6.4730938 7.2554062 6.5234375 7.0184688 6.5234375 6.7304688 C 6.5234375 6.4544687 6.4675156 6.226875 6.3535156 6.046875 C 6.2455156 5.866875 6.0981094 5.7250469 5.9121094 5.6230469 C 5.7321094 5.5150469 5.5250156 5.4404375 5.2910156 5.3984375 C 5.0570156 5.3564375 4.8163125 5.3359375 4.5703125 5.3359375 z M 12.761719 8.8417969 L 13.03125 8.8417969 L 13.03125 12.896484 L 12.650391 12.896484 L 12.650391 9.421875 C 12.607491 9.468675 12.550669 9.5157063 12.480469 9.5664062 C 12.414169 9.6171063 12.337753 9.66805 12.251953 9.71875 C 12.166153 9.76555 12.077975 9.812575 11.984375 9.859375 C 11.890775 9.902275 11.796725 9.9375437 11.703125 9.9648438 L 11.591797 9.671875 C 11.825797 9.5899751 12.033497 9.4880813 12.216797 9.3632812 C 12.400097 9.2345813 12.582319 9.0601969 12.761719 8.8417969 z "
     id="path4" />
</svg>

<svg xmlns="http://www.w3.org/2000/svg" viewBox="0 0 16 16">
 <path d="m 1.6 0 c -0.886 0 -1.6 0.713 -1.6 1.6 l 0 12.801 c 0 0.886 0.713 1.6 1.6 1.6 l 12.801 0 c 0.886 0 1.6 -0.713 1.6 -1.6 l 0 -12.801 c 0 -0.886 -0.713 -1.6 -1.6 -1.6 l -12.801 0 z m 2.945 4.805 c 0.882 0 1.539 0.168 1.971 0.504 c 0.432 0.336 0.648 0.814 0.648 1.432 c 0 0.354 -0.063 0.656 -0.189 0.908 c -0.126 0.246 -0.307 0.448 -0.541 0.604 c -0.234 0.15 -0.521 0.262 -0.863 0.334 c -0.336 0.066 -0.717 0.098 -1.143 0.098 l -0.846 0 l 0 2.412 l -0.613 0 l 0 -6.119 c 0.216 -0.06 0.468 -0.103 0.756 -0.127 c 0.294 -0.03 0.568 -0.045 0.82 -0.045 z m 4.264 0.162 l 0 1.477 l 1.854 0 l 0 0.494 l -1.854 0 l 0 2.475 c 0 0.264 0.021 0.48 0.063 0.648 c 0.048 0.162 0.113 0.289 0.197 0.379 c 0.084 0.09 0.187 0.15 0.307 0.18 c 0.12 0.03 0.252 0.045 0.396 0.045 c 0.246 0 0.444 -0.028 0.594 -0.082 c 0.15 -0.06 0.268 -0.112 0.352 -0.16 l 0.143 0.484 c -0.084 0.054 -0.229 0.117 -0.439 0.189 c -0.21 0.066 -0.44 0.1 -0.686 0.1 c -0.288 0 -0.531 -0.035 -0.729 -0.107 c -0.192 -0.078 -0.347 -0.194 -0.467 -0.344 c -0.114 -0.156 -0.196 -0.346 -0.244 -0.574 c -0.048 -0.228 -0.072 -0.499 -0.072 -0.811 l 0 -4.285 l 0.586 -0.107 z m -4.238 0.369 c -0.228 0 -0.422 0.009 -0.584 0.027 c -0.156 0.012 -0.29 0.023 -0.404 0.035 l 0 2.754 l 0.773 0 c 0.33 0 0.627 -0.017 0.891 -0.053 c 0.27 -0.042 0.498 -0.115 0.684 -0.217 c 0.192 -0.108 0.339 -0.255 0.441 -0.441 c 0.102 -0.186 0.152 -0.423 0.152 -0.711 c 0 -0.276 -0.056 -0.504 -0.17 -0.684 c -0.108 -0.18 -0.255 -0.322 -0.441 -0.424 c -0.18 -0.108 -0.387 -0.183 -0.621 -0.225 c -0.234 -0.042 -0.475 -0.063 -0.721 -0.063 z m 8.191 3.506 l 0.27 0 l 0 4.055 l -0.381 0 l 0 -3.475 c -0.043 0.047 -0.1 0.094 -0.17 0.145 c -0.066 0.051 -0.143 0.102 -0.229 0.152 c -0.086 0.047 -0.174 0.094 -0.268 0.141 c -0.094 0.043 -0.188 0.078 -0.281 0.105 l -0.111 -0.293 c 0.234 -0.082 0.442 -0.184 0.625 -0.309 c 0.183 -0.129 0.366 -0.303 0.545 -0.521 z" style="fill:#353535;fill-opacity:1"/>
</svg>
